dist/img/icon-twitter.svg

<?xml version="1.0" encoding="UTF-8" standalone="no"?>
<svg width="24px" height="19px" viewBox="0 0 24 19" version="1.1" xmlns="http://www.w3.org/2000/svg" xmlns:xlink="http://www.w3.org/1999/xlink" xmlns:sketch="http://www.bohemiancoding.com/sketch/ns">
    <!-- Generator: Sketch 3.2.2 (9983) - http://www.bohemiancoding.com/sketch -->
    <title>icon-twitter</title>
    <desc>Created with Sketch.</desc>
    <defs></defs>
    <g id="Page-1" stroke="none" stroke-width="1" fill="none" fill-rule="evenodd" sketch:type="MSPage">
        <g id="Desktop" sketch:type="MSArtboardGroup" transform="translate(-817.000000, -384.000000)" fill="#000000">
            <g id="icon-twitter" sketch:type="MSLayerGroup" transform="translate(817.000000, 384.000000)">
                <path d="M7.79771429,18.3852941 C9.44,18.3852941 10.9782857,18.1349412 12.4411429,17.6331176 C13.8777143,17.1055882 15.1085714,16.4282941 16.1348571,15.5755294 C17.1348571,14.7227647 18.0331429,13.7448235 18.7771429,12.6405882 C19.4948571,11.5117647 20.0594286,10.3572353 20.4182857,9.15352941 C20.7782857,7.94982353 20.9577143,6.745 20.9577143,5.51558824 L20.9577143,4.93888235 C21.8548571,4.28729412 22.6251429,3.50941176 23.2662857,2.60635294 C22.368,2.95729412 21.496,3.20764706 20.5977143,3.28364706 C21.5988571,2.70582353 22.2914286,1.87876471 22.6251429,0.800235294 C21.7268571,1.32664706 20.752,1.70329412 19.7005714,1.90335294 C18.7771429,0.95 17.648,0.473882353 16.3142857,0.473882353 C15.0571429,0.473882353 13.9542857,0.899705882 13.056,1.77817647 C12.1588571,2.68123529 11.6971429,3.73517647 11.6971429,4.98917647 C11.6971429,5.31552941 11.7485714,5.66647059 11.8251429,6.01741176 C9.92685714,5.94252941 8.15657143,5.46529412 6.48914286,4.63823529 C4.848,3.78547059 3.43657143,2.68123529 2.28228571,1.30205882 C1.872,2.00394118 1.64114286,2.75611765 1.64114286,3.58429412 C1.64114286,4.33647059 1.84685714,5.06405882 2.20571429,5.74135294 C2.59085714,6.39405882 3.07771429,6.92047059 3.71885714,7.34741176 C2.97485714,7.32170588 2.28228571,7.12164706 1.616,6.77070588 L1.616,6.821 C1.616,7.92411765 1.97485714,8.87747059 2.66742857,9.70564706 C3.38514286,10.5338235 4.25714286,11.0345294 5.33485714,11.2602941 C4.92457143,11.3608824 4.51428571,11.4111765 4.104,11.4111765 C3.84685714,11.4111765 3.56457143,11.3865882 3.232,11.3362941 C3.53942857,12.2393529 4.07771429,12.9915294 4.87314286,13.5693529 C5.66857143,14.1706471 6.56685714,14.4712941 7.56685714,14.4712941 C5.87428571,15.7767059 3.976,16.4037059 1.82057143,16.4037059 C1.41028571,16.4037059 1.05142857,16.4037059 0.717714286,16.3534118 C2.84685714,17.708 5.232,18.3852941 7.79771429,18.3852941" id="Fill-178" sketch:type="MSShapeGroup"></path>
            </g>
        </g>
    </g>
</svg>

<svg width="24" height="19" viewBox="0 0 24 19" xmlns="http://www.w3.org/2000/svg"><title>icon-twitter</title><path d="M7.798 18.385c1.642 0 3.18-.25 4.643-.752 1.438-.527 2.67-1.205 3.695-2.057 1-.853 1.898-1.83 2.642-2.935.718-1.128 1.282-2.283 1.64-3.486.36-1.204.54-2.41.54-3.638V4.94c.898-.653 1.668-1.43 2.31-2.334-.9.35-1.77.602-2.67.678C21.6 2.706 22.292 1.88 22.626.8c-.898.527-1.873.903-2.924 1.103C18.778.95 17.65.473 16.315.473c-1.257 0-2.36.427-3.258 1.305-.897.903-1.36 1.957-1.36 3.21 0 .328.053.678.13 1.03-1.9-.075-3.67-.553-5.337-1.38C4.847 3.785 3.436 2.68 2.28 1.302c-.41.702-.64 1.454-.64 2.282 0 .752.205 1.48.564 2.157.385.654.872 1.18 1.513 1.607-.745-.025-1.438-.225-2.104-.576v.05c0 1.104.36 2.057 1.05 2.886.72.828 1.59 1.33 2.67 1.554-.41.1-.822.15-1.232.15-.257 0-.54-.023-.872-.074.307.903.846 1.656 1.64 2.233.797.6 1.695.9 2.695.9-1.693 1.307-3.59 1.934-5.746 1.934-.41 0-.77 0-1.102-.05 2.13 1.354 4.514 2.03 7.08 2.03" fill="#000" fill-rule="evenodd"/></svg>
